X:510
M:C|
L:1/8
K:B_
e|dfdB egce|dBfB AcFe|dfdB egce|dBfd c2 Be|dfdB egce|
dBfB AcFA|BdcA BGFD|EGDF Cedc||

